X:1
T:Mitt hem
T:Mitt hem
T:Hugo Bedinger
C:Hugo Bedinger
%%score [ 1 2 ( 3 4 ) ( 5 6 ) ]
L:1/8
Q:1/4=72
M:3/4
K:F
V:1 treble nm="Soprano"
V:2 treble nm="Alto"
V:3 treble-8 nm="Tenor"
V:4 treble-8 
V:5 bass nm="Bass"
V:6 bass 
V:1
"^Andante" z2 | z6 | z6 | z6 | z2 z2!mf! C2 | F3!<(! G A2 | A3 G F2 | c2 c2 d2 | %8
w: ||||1.Men|al- drig en|kä- ra- re|bo- ning jag|
w: ||||2.Med|snö- i- ga|fjäl- lar och|grön- skan- de|
 (d2 c2)!<)!!f! c2 | f4 c c | !tenuto!_d2 !tenuto!_A2 !tenuto!B2 | (c4 B2) |!>(! A4 A2!>)! | %13
w: såg _ kring|he- la den|grön- skan- de|jor- *|den, kring|
w: strand _ mer|värt än allt|guld ut- i|värl- *|den, mer|
"^dim." A3 G F2 | G2 A2 D2 | F6 | F4 |:!p!"^dolce" (FG) | A2 A2 d2 | d2 c2 G2 | B3 c B2 | A4 A2 | %22
w: he- la den|grön- skan- de|jor-|den!|Där _|le- ver mitt|min- ne, där|föd- des mitt|hopp, där|
w: värt än allt|guld ut- i|värl-|den!|Ej _|by- ta jag|vil- le, vad|jor- den än|gav, mot|
"^cresc." A3 G F2 | G2 A2 B2 | (ce) e2 d2 | (A2 G2)!ff! c2 |"^sosten." f2 _d2 (_AB) | (cd) d2 E2 | %28
w: lär- de jag|blic- ka till|him- * me- len|opp _ och|äls- ka mitt _|hem- * land i|
w: ri- ka- ste|skat- ter, den|fri- * het, den|grav _ jag|ärv- de vid _|fä- * der- ne-|
!<(! c6!<)! |!>(! F4!>)!!p! D2 |"^poco rit." C3!<(! =B, C2 | (cd)!<)! !tenuto!d2 E2 |!>(! F6!>)! | %33
w: Nor-|den, och|äl- ska mitt|hem- * land i|Nor-|
w: här-|den, jag|ärv- de vid|fä- * der- ne-|här-|
 !fermata!F4 :| %34
w: den!|
w: den!|
V:2
 z2 | z6 | z6 | z6 | z2 z2!mf! C2 | C3!<(! C C2 | F3 F F2 | F2 E2 E2 | G4!<)!!f! [Ec]2 | %9
w: ||||1.Men|al- drig en|kä- ra- re|bo- ning jag|såg kring|
w: ||||2.Med|snö- i- ga|fjäl- lar och|grön- skan- de|strand mer|
 [Fc]4 F F | !tenuto![F_A]2 !tenuto!_D2 !tenuto!F2 | (F2 E4) |!>(! (E2 G2) (F_E)!>)! | %13
w: he- la den|grön- skan- de|jor- *|den, _ kring _|
w: värt än allt|guld ut- i|värl- *|den, _ mer _|
"^dim." =D2 D2 D2 | D2 =E2 D2 | (C4 B,2) | A,4 |: z2 |!p! F2 F2 F F | G2 G2 (GC) | F2 B,2 F2 | %21
w: he- la den|grön- skan- de|jor- *|den!||Där le- ver mitt|min- ne, där _|föd- des mitt|
w: värt än allt|guld ut- i|värl- *|den!||Ej by- ta jag|vil- le, vad _|jor- den än|
 E4 F2 |"^cresc." F3 G F2 | E2 E2 (CE) | F2 F2 B2 | (A2 G2)!ff! (EG) |"^sosten." [F_A]2 A2 F2 | %27
w: hopp, där|lär- de jag|blic- ka till _|him- me- len|opp _ och _|äls- ka mitt|
w: gav, mot|ri- ka- ste|skat- ter, den _|fri- het, den|grav _ jag _|ärv- de vid|
 F2 [DG]2 C2 |!<(! (C2 F2 C2)!<)! |!>(! =B,4!>)!!p! B,2 |"^poco rit." A,3!<(! A, C2 | %31
w: hem- land i|Nor- * *|den, och|äl- ska mitt|
w: fä- der- ne-|här- * *|den, jag|ärv- de vid|
 [DF]2!<)! !tenuto![DF]2 (DC) |!>(! (C4 B,2)!>)! | !fermata!A,4 :| %34
w: hem- land i *|Nor- *|den!|
w: fä- der- ne- *|här- *|den!|
V:3
!mf!"^dolce"!<(! c2 | (F2- FG) A B | c2 d3 d!<)! | g2 e3!>(! d | (d2 c2)!>)! G2 | F3!<(! E (Fc) | %6
w: 1.Mitt|hem _ _ är så|rin- ga, dess|dörr är så|låg. _ Men|al- drig en _|
w: 2.Och|är _ _ ej mitt|stol- ta, mitt|här- li- ga|land _ med|snö- i- ga _|
 =B3 B B2 | c2 c2 d2 | (d2 c2)!<)!!f! (Gc) | c4 c f | !tenuto!_d2 !tenuto!f2 !tenuto!d2 | (B4 c2) | %12
w: kä- ra- re|bo- ning jag|såg _ kring _|he- la den|grön- skan- de|jor- *|
w: fjäl- lar och|grön- skan- de|strand _ mer _|värt än allt|guld ut- i|värl- *|
!>(! c4 F2!>)! |"^dim." F2 F2 B2 | B2 c2 B2 | (B3 A G2) | A4 |: z2 |!p! A2 d2 A A | G2 c2 (dc) | %20
w: den, kring|he- la den|grön- skan- de|jor- * *|den!||Där le- ver mitt|min- ne, där _|
w: den, mer|värt än allt|guld ut- i|värl- * *|den!||Ej by- ta jag|vil- le, vad _|
 B2 f2 (BG) | G2 A2 (Ad) |"^cresc." d3 f d2 | c2 c2 (ec) | c2 B2 f2 | (f2 e2)!ff! (cB) | %26
w: föd- des mitt _|hopp, _ där _|lär- de jag|blic- ka till _|him- me- len|opp _ och _|
w: jor- den än _|gav, _ mot _|ri- ka- ste|skat- ter, den _|fri- het, den|grav _ jag _|
"^sosten." [F_A]2 f2 (_dA) | =A2 f2 G2 |!<(! (E2 F2 GA)!<)! |!>(! A2 G2!>)!!p! F2 | %30
w: äls- ka mitt _|hem- land i|Nor- * * *|den, * och|
w: ärv- de vid _|fä- der- ne-|här- * * *|den, * jag|
"^poco rit." F3!<(! F A2 | B2!<)! !tenuto!B2 B2 |!>(! (B4 G2)!>)! | !fermata!A4 :| %34
w: äl- ska mitt|hem- land i|Nor- *|den!|
w: ärv- de vid|fä- der- ne-|här- *|den!|
V:4
 c2 | F4 F F | A2 A2 G2 | d2 c3 A | G4 G2 | x6 | x6 | x6 | x6 | x6 | x6 | x6 | x6 | x6 | x6 | x6 | %16
 x4 |: x2 | x6 | x6 | x6 | x6 | x6 | x6 | x6 | x6 | x6 | x6 | x6 | x6 | x6 | x6 | x6 | x4 :| %34
V:5
!mf!"^dolce"!<(! C,2 | F,2 F,2 F, F, | F,2 F,2 E,2!<)! | E,2 G,3!>(! F, | (F,2 E,2)!>)! E,2 | %5
w: 1.Mitt|hem _ är så|rin- ga, dess|dörr är så|låg. _ Men|
w: 2.Och|är _ ej mitt|stol- ta, mitt|här- li- ga|land _ med|
 A,,3!<(! C, F,2 | [D,G,]3 [D,G,] G,2 | [C,G,]2 [C,G,]2 [B,,G,]2 | [B,,E,]4!<)!!f! [B,,G,]2 | %9
w: al- drig en|kä- ra- re|bo- ning jag|såg kring|
w: snö- i- ga|fjäl- lar och|grön- skan- de|strand mer|
 [A,,F,]4 A, A, | !tenuto!_A,2 !tenuto!A,2 !tenuto!A,2 | G,6 |!>(! F,4 F,2!>)! | %13
w: he- la den|grön- skan- de|jor-|den, kring|
w: värt än allt|guld ut- i|värl-|den, mer|
"^dim." B,,2 B,,2 (F,G,) | F,2 C,2 C,2 | (F,4 C,2) | [F,,C,]4 |: z2 |!p! C,2 D,2 D, D, | %19
w: he- la den _|grön- skan- de|jor- *|den!||Där le- ver mitt|
w: värt än allt _|guld ut- i|värl- *|den!||Ej by- ta jag|
 E,2 E,2 E,2 | D,3 D, D,2 | ^C,4 D,2 |"^cresc." B,3 D B,2 | B,2 A,2 G,2 | A,2 G,2 G,2 | %25
w: min- ne, där|föd- des mitt|hopp, där|lär- de jag|blic- ka till|him- me- len|
w: vil- le, vad|jor- den än|gav, mot|ri- ka- ste|skat- ter, den|fri- het, den|
 (C2 C,2)!ff! C,2 |"^sosten." _D,2 D,2 D,2 | C,2 [B,,G,]2 B,,2 |!<(! A,,6!<)! | %29
w: opp _ och|äls- ka mitt|hem- land i|Nor-|
w: grav _ jag|ärv- de vid|fä- der- ne-|här-|
!>(! [G,,D,]4!>)!!p! G,,2 |"^poco rit." C,3!<(! C, [C,F,]2 | [C,F,]2!<)! !tenuto![G,,F,]2 [C,G,]2 | %32
w: den, och|äl- ska mitt|hem- land i|
w: den, jag|ärv- de vid|fä- der- ne-|
!>(! (F,4 C,2)!>)! | !fermata![F,,C,]4 :| %34
w: Nor- *|den!|
w: här- *|den!|
V:6
 C,2 | F,2 E,2 D,2 | C,2 B,,2 B,,2 | B,,2 B,,2 B,,2 | B,,4 B,,2 | x6 | x6 | x6 | x6 | x6 | x6 | %11
w: |hem är så||||||||||
w: |är ej mitt||||||||||
 x6 | x6 | B,,2 B,,2 G,,2 | C,2 C,2 C,2 | x6 | x4 |: x2 | x6 | x6 | x6 | x6 | x6 | x6 | x6 | x6 | %26
w: |||||||||||||||
w: |||||||||||||||
 x6 | x6 | x6 | x6 | x6 | x6 | x6 | x4 :| %34
w: ||||||||
w: ||||||||

